static/src/images/global/share-pinterest--red-dark.svg

<svg xmlns="http://www.w3.org/2000/svg" width="16px" height="20px"><g fill-rule="evenodd"><path d="M9.26587075 0.9 C4.27332893 0.9 1.8 4.4 1.8 7.4 C1.755875 9.2 2.4 10.8 3.9 11.4 C4.14844828 11.5 4.4 11.4 4.4 11.2 C4.48235814 11 4.6 10.5 4.6 10.3 C4.71881441 10.1 4.7 10 4.5 9.7 C4.07422015 9.2 3.8 8.6 3.8 7.7 C3.80380102 5 5.8 2.6 9 2.6 C11.7994308 2.6 13.3 4.4 13.3 6.7 C13.3498183 9.7 12 12.3 10 12.3 C8.91900598 12.3 8.1 11.4 8.4 10.2 C8.67566377 8.9 9.3 7.5 9.3 6.5 C9.28746226 5.6 8.8 4.9 7.9 4.9 C6.74643273 4.9 5.8 6.1 5.8 7.6 C5.84379069 8.6 6.2 9.3 6.2 9.3 C6.17886766 9.3 5 14.2 4.8 15 C4.42575336 16.7 4.8 18.8 4.8 19 C4.81264997 19.2 5 19.2 5 19.1 C5.14901076 19 6.5 17.3 6.9 15.7 C7.07135585 15.2 7.7 12.8 7.7 12.8 C8.0469422 13.5 9.1 14.1 10.2 14.1 C13.6267732 14.1 15.9 11 15.9 6.9 C15.918625 3.8 13.3 0.9 9.3 0.9" fill="#b9252c"/></g></svg>

<svg xmlns="http://www.w3.org/2000/svg" fill-rule="evenodd" viewBox="0 0 16 20"><path d="m9.266.9c-4.993 0-7.466 3.5-7.466 6.5-.044 1.8.6 3.4 2.1 4 .248.1.5 0 .5-.2.082-.2.2-.7.2-.9.119-.2.1-.3-.1-.6-.426-.5-.7-1.1-.7-2 .004-2.7 2-5.1 5.2-5.1 2.799 0 4.3 1.8 4.3 4.1.05 3-1.3 5.6-3.3 5.6-1.081 0-1.9-.9-1.6-2.1.276-1.3.9-2.7.9-3.7-.013-.9-.5-1.6-1.4-1.6-1.154 0-2.1 1.2-2.1 2.7.044 1 .4 1.7.4 1.7-.021 0-1.2 4.9-1.4 5.7-.374 1.7 0 3.8 0 4 .013.2.2.2.2.1.149-.1 1.5-1.8 1.9-3.4.171-.5.8-2.9.8-2.9.347.7 1.4 1.3 2.5 1.3 3.427 0 5.7-3.1 5.7-7.2.019-3.1-2.6-6-6.6-6" fill="#b9252c"/></svg>
